svg/icon/xem.svg

<svg xmlns="http://www.w3.org/2000/svg" xmlns:xlink="http://www.w3.org/1999/xlink" width="32" height="32" viewBox="0 0 32 32"><defs><linearGradient id="xem-c" x1="50%" x2="50%" y1="0%" y2="100%"><stop offset="0%" stop-color="#FFF" stop-opacity=".5"/><stop offset="100%" stop-opacity=".5"/></linearGradient><circle id="xem-b" cx="16" cy="15" r="15"/><filter id="xem-a" width="111.7%" height="111.7%" x="-5.8%" y="-4.2%" filterUnits="objectBoundingBox"><feOffset dy=".5" in="SourceAlpha" result="shadowOffsetOuter1"/><feGaussianBlur in="shadowOffsetOuter1" result="shadowBlurOuter1" stdDeviation=".5"/><feComposite in="shadowBlurOuter1" in2="SourceAlpha" operator="out" result="shadowBlurOuter1"/><feColorMatrix in="shadowBlurOuter1" values="0 0 0 0 0 0 0 0 0 0 0 0 0 0 0 0 0 0 0.199473505 0"/></filter><path id="xem-e" d="M6.14530978,10.9536742 C6.05084138,10.1668156 6.00187205,9.39567524 6,8.63638258 C7.32182033,7.88464403 8.70274296,7.29300264 10.1519743,6.85718535 C12.1863206,6.24531739 14.2739928,5.96178893 16.4141909,6.00412442 C16.9819421,6.01531647 17.8031494,6.07784974 18.4279986,6.14528588 C16.8331029,6.99962491 15.7073345,8.52559676 15.3629104,10.3356425 C15.3033432,10.6489703 15.2701133,10.9748082 15.2594199,11.3231398 C15.2430107,11.8586889 15.1907277,12.2811911 15.0798063,12.6755771 C14.6346672,14.259046 13.3372772,15.4958892 11.7396969,15.858756 C9.64056263,16.3355045 7.52474522,15.2993229 6.61078363,13.3476146 C6.56783679,13.2559318 6.5351796,13.158104 6.50974673,13.0470752 C6.35097489,12.3523768 6.22935277,11.6544369 6.14530978,10.9536742 Z M22.7576998,19.5140732 C22.5196708,19.8831802 22.2689238,20.2447276 22.0055221,20.598774 C22.0125072,19.5818328 21.7684879,18.6160844 21.2765665,17.7083151 C20.7654247,16.7652423 20.047572,16.0096668 19.1297505,15.4461316 C19.0863148,15.4196084 19.0863148,15.4196084 19.0390688,15.39107 C18.9628784,15.345043 18.9309389,15.3255012 18.8910166,15.3001352 C17.7537473,14.5777842 17.0613277,13.5663054 16.8174526,12.2600061 C16.3764745,9.89846091 17.863452,7.60618052 20.1986708,7.04121722 C21.0185402,6.84282398 21.8294699,6.8705308 22.6357403,7.12410581 C23.2550211,7.31896621 23.8805248,7.57427105 24.6436177,7.9314036 C25.0842303,8.13768347 25.5279947,8.36815454 26,8.63546814 C25.9983046,9.17605287 25.972015,9.72876709 25.9221236,10.2988993 C25.8488089,11.1368781 25.7241526,11.9649241 25.547875,12.7833769 C25.0292722,15.1917303 24.0987313,17.4344293 22.7576998,19.5140732 Z M19.7213745,23.1868994 C18.5786379,24.2723627 17.3436514,25.2083571 16.0018949,26 C15.7925156,25.8853764 15.3930405,25.6361766 14.9839832,25.3609767 C13.8159009,24.5744979 12.7410051,23.6775442 11.7595631,22.6699725 C10.7761509,21.6602685 9.90708762,20.5615656 9.15266954,19.3737109 C8.59542758,18.4963484 8.10985572,17.5848421 7.69619454,16.6389855 C7.89095507,16.7528682 8.09155944,16.855318 8.29807533,16.9462413 C8.88405397,17.2042322 9.49027439,17.3643885 10.1165929,17.4244613 C11.3956435,17.5471104 12.6003108,17.2881607 13.7299027,16.6514864 C14.2683568,16.3480179 14.8370511,16.1572284 15.4361402,16.0820941 C17.6144667,15.8089403 19.6943414,17.1334899 20.3378304,19.288154 C20.6726457,20.4092145 20.5750445,21.5095276 20.0547818,22.5945738 C20.0106523,22.6865257 19.9730518,22.7614557 19.8832753,22.9377227 C19.8610779,22.9813126 19.8610779,22.9813126 19.8388051,23.0251873 C19.8057075,23.0903337 19.7673992,23.1431777 19.7213745,23.1868994 Z"/><filter id="xem-d" width="117.5%" height="117.5%" x="-8.8%" y="-6.2%" filterUnits="objectBoundingBox"><feOffset dy=".5" in="SourceAlpha" result="shadowOffsetOuter1"/><feGaussianBlur in="shadowOffsetOuter1" result="shadowBlurOuter1" stdDeviation=".5"/><feColorMatrix in="shadowBlurOuter1" values="0 0 0 0 0 0 0 0 0 0 0 0 0 0 0 0 0 0 0.204257246 0"/></filter></defs><g fill="none" fill-rule="evenodd"><use fill="#000" filter="url(#xem-a)" xlink:href="#xem-b"/><use fill="#67B2E8" xlink:href="#xem-b"/><use fill="url(#xem-c)" style="mix-blend-mode:soft-light" xlink:href="#xem-b"/><circle cx="16" cy="15" r="14.5" stroke="#000" stroke-opacity=".097"/><g><use fill="#000" filter="url(#xem-d)" xlink:href="#xem-e"/><use fill="#FFF" xlink:href="#xem-e"/></g></g></svg>

<svg xmlns="http://www.w3.org/2000/svg" xmlns:xlink="http://www.w3.org/1999/xlink" width="32" height="32" viewBox="0 0 32 32"><defs><linearGradient id="c" x1="50%" x2="50%" y1="0%" y2="100%"><stop offset="0%" stop-color="#FFF" stop-opacity=".5"/><stop offset="100%" stop-opacity=".5"/></linearGradient><circle id="b" cx="16" cy="15" r="15"/><filter id="a" width="111.7%" height="111.7%" x="-5.8%" y="-4.2%" filterUnits="objectBoundingBox"><feOffset dy=".5" in="SourceAlpha" result="shadowOffsetOuter1"/><feGaussianBlur in="shadowOffsetOuter1" result="shadowBlurOuter1" stdDeviation=".5"/><feComposite in="shadowBlurOuter1" in2="SourceAlpha" operator="out" result="shadowBlurOuter1"/><feColorMatrix in="shadowBlurOuter1" values="0 0 0 0 0 0 0 0 0 0 0 0 0 0 0 0 0 0 0.199473505 0"/></filter><path id="e" d="M6.145 10.954A19.83 19.83 0 0 1 6 8.636a20.035 20.035 0 0 1 4.152-1.779 20.221 20.221 0 0 1 6.262-.853c.568.011 1.39.074 2.014.141a6.005 6.005 0 0 0-3.065 4.19c-.06.314-.093.64-.104.988-.016.536-.068.958-.18 1.353a4.53 4.53 0 0 1-8.469.672 1.475 1.475 0 0 1-.1-.3 20.172 20.172 0 0 1-.365-2.094zm16.613 8.56c-.238.37-.49.73-.752 1.085a5.898 5.898 0 0 0-.73-2.89 5.933 5.933 0 0 0-2.146-2.263l-.09-.055a7.075 7.075 0 0 1-.149-.09c-1.137-.723-1.83-1.735-2.074-3.041A4.518 4.518 0 0 1 20.2 7.041c.82-.198 1.63-.17 2.437.083.619.195 1.245.45 2.008.807.44.207.884.437 1.356.704a20.113 20.113 0 0 1-.452 4.148 20.147 20.147 0 0 1-2.79 6.731zm-3.037 3.673A20.522 20.522 0 0 1 16.001 26a15.74 15.74 0 0 1-1.017-.639 20.375 20.375 0 0 1-7.288-8.722 5.882 5.882 0 0 0 2.42.785 6.027 6.027 0 0 0 3.614-.773 4.618 4.618 0 0 1 1.706-.569 4.52 4.52 0 0 1 4.902 3.206c.335 1.121.237 2.222-.283 3.307-.044.092-.082.166-.172.343l-.044.087a.581.581 0 0 1-.118.162z"/><filter id="d" width="117.5%" height="117.5%" x="-8.8%" y="-6.2%" filterUnits="objectBoundingBox"><feOffset dy=".5" in="SourceAlpha" result="shadowOffsetOuter1"/><feGaussianBlur in="shadowOffsetOuter1" result="shadowBlurOuter1" stdDeviation=".5"/><feColorMatrix in="shadowBlurOuter1" values="0 0 0 0 0 0 0 0 0 0 0 0 0 0 0 0 0 0 0.204257246 0"/></filter></defs><g fill="none" fill-rule="evenodd"><use fill="#000" filter="url(#a)" xlink:href="#b"/><use fill="#67B2E8" xlink:href="#b"/><use fill="url(#c)" style="mix-blend-mode:soft-light" xlink:href="#b"/><circle cx="16" cy="15" r="14.5" stroke="#000" stroke-opacity=".097"/><use fill="#000" filter="url(#d)" xlink:href="#e"/><use fill="#FFF" xlink:href="#e"/></g></svg>
